assets/offering/prylskyddet.svg

<svg width="56" height="56" viewBox="0 0 56 56" fill="none" xmlns="http://www.w3.org/2000/svg">
<mask id="mask0" mask-type="alpha" maskUnits="userSpaceOnUse" x="0" y="0" width="56" height="57">
<path fill-rule="evenodd" clip-rule="evenodd" d="M0 0.000213623H55.9997V56H0V0.000213623Z" fill="white"/>
</mask>
<g mask="url(#mask0)">
<path fill-rule="evenodd" clip-rule="evenodd" d="M56 28.0002C56 43.4642 43.464 56.0002 28 56.0002C12.536 56.0002 0 43.4642 0 28.0002C0 12.5362 12.536 0.000213623 28 0.000213623C43.464 0.000213623 56 12.5362 56 28.0002Z" fill="#1BE9B6"/>
</g>
<path fill-rule="evenodd" clip-rule="evenodd" d="M31.0478 39.9308L30.7238 39.7528C30.1258 39.4148 29.7578 38.7848 29.7578 38.1068V29.1748H30.7578V38.1068C30.7578 38.4258 30.9308 38.7218 31.2098 38.8788L31.5278 39.0538L31.0478 39.9308Z" fill="white"/>
<path fill-rule="evenodd" clip-rule="evenodd" d="M43.0358 39.9923H30.9648V38.9923H43.0358C43.5248 38.9923 43.9228 38.5953 43.9228 38.1063V26.4323H44.9228V38.1063C44.9228 39.1463 44.0758 39.9923 43.0358 39.9923Z" fill="white"/>
<mask id="mask1" mask-type="alpha" maskUnits="userSpaceOnUse" x="0" y="0" width="56" height="56">
<path fill-rule="evenodd" clip-rule="evenodd" d="M0 56H56V0H0V56Z" fill="white"/>
</mask>
<g mask="url(#mask1)">
<path fill-rule="evenodd" clip-rule="evenodd" d="M35.6953 17.626H39.4433V16.626H35.6953V17.626Z" fill="white"/>
<path fill-rule="evenodd" clip-rule="evenodd" d="M38.9576 34.6339C38.9576 35.5259 38.2336 36.2489 37.3426 36.2489C36.4496 36.2489 35.7266 35.5259 35.7266 34.6339C35.7266 33.7409 36.4496 33.0189 37.3426 33.0189C38.2336 33.0189 38.9576 33.7409 38.9576 34.6339Z" fill="white"/>
<path fill-rule="evenodd" clip-rule="evenodd" d="M30.7578 29.175H29.7578V14.763C29.7578 13.723 30.6038 12.877 31.6438 12.877H43.0348C44.0748 12.877 44.9218 13.723 44.9218 14.763V26.433H43.9218V14.763C43.9218 14.275 43.5248 13.877 43.0348 13.877H31.6438C31.1548 13.877 30.7578 14.275 30.7578 14.763V29.175Z" fill="white"/>
<path fill-rule="evenodd" clip-rule="evenodd" d="M12.8401 29.3898C10.1931 29.3898 8.03906 31.5438 8.03906 34.1918C8.03906 36.8388 10.1931 38.9928 12.8401 38.9928C15.4871 38.9928 17.6421 36.8388 17.6421 34.1918C17.6421 31.5438 15.4871 29.3898 12.8401 29.3898ZM12.8401 39.9928C9.64206 39.9928 7.03906 37.3898 7.03906 34.1918C7.03906 30.9928 9.64206 28.3898 12.8401 28.3898C16.0391 28.3898 18.6421 30.9928 18.6421 34.1918C18.6421 37.3898 16.0391 39.9928 12.8401 39.9928Z" fill="white"/>
<path fill-rule="evenodd" clip-rule="evenodd" d="M13.7637 33.6623L21.3177 33.6753L25.7387 26.1903H18.1847L13.7637 33.6623ZM21.8877 34.6753L12.0117 34.6603L17.6147 25.1903H27.4907L21.8877 34.6753Z" fill="white"/>
<path fill-rule="evenodd" clip-rule="evenodd" d="M30.9661 29.3898C28.3191 29.3898 26.1641 31.5438 26.1641 34.1918C26.1641 36.8388 28.3191 38.9928 30.9661 38.9928C33.6131 38.9928 35.7681 36.8388 35.7681 34.1918C35.7681 31.5438 33.6131 29.3898 30.9661 29.3898ZM30.9661 39.9928C27.7671 39.9928 25.1641 37.3898 25.1641 34.1918C25.1641 30.9928 27.7671 28.3898 30.9661 28.3898C34.1651 28.3898 36.7681 30.9928 36.7681 34.1918C36.7681 37.3898 34.1651 39.9928 30.9661 39.9928Z" fill="white"/>
<path fill-rule="evenodd" clip-rule="evenodd" d="M30.4995 34.3429L25.6875 21.5809H30.2615V22.5809H27.1325L31.4355 33.9889L30.4995 34.3429Z" fill="white"/>
<path fill-rule="evenodd" clip-rule="evenodd" d="M15.1172 22.581H19.9052V21.581H15.1172V22.581Z" fill="white"/>
</g>
</svg>

<svg width="56" height="56" viewBox="0 0 56 56" fill="none" xmlns="http://www.w3.org/2000/svg"><mask id="a" maskUnits="userSpaceOnUse" x="0" y="0" width="56" height="57"><path fill-rule="evenodd" clip-rule="evenodd" d="M0 0h56v56H0V0z" fill="#fff"/></mask><g mask="url(#a)"><path fill-rule="evenodd" clip-rule="evenodd" d="M56 28c0 15.464-12.536 28-28 28S0 43.464 0 28 12.536 0 28 0s28 12.536 28 28z" fill="#1BE9B6"/></g><path fill-rule="evenodd" clip-rule="evenodd" d="M31.048 39.93l-.324-.177a1.894 1.894 0 01-.966-1.646v-8.932h1v8.932c0 .319.173.615.452.772l.318.175-.48.877z" fill="#fff"/><path fill-rule="evenodd" clip-rule="evenodd" d="M43.036 39.992H30.965v-1h12.07a.887.887 0 00.888-.886V26.432h1v11.674c0 1.04-.847 1.886-1.887 1.886z" fill="#fff"/><mask id="b" maskUnits="userSpaceOnUse" x="0" y="0" width="56" height="56"><path fill-rule="evenodd" clip-rule="evenodd" d="M0 56h56V0H0v56z" fill="#fff"/></mask><g mask="url(#b)" fill-rule="evenodd" clip-rule="evenodd" fill="#fff"><path d="M35.695 17.626h3.748v-1h-3.748v1zM38.958 34.634a1.616 1.616 0 11-3.232-.001 1.616 1.616 0 013.232 0z"/><path d="M30.758 29.175h-1V14.763c0-1.04.846-1.886 1.886-1.886h11.39c1.04 0 1.888.846 1.888 1.886v11.67h-1v-11.67a.887.887 0 00-.887-.886H31.644a.887.887 0 00-.886.886v14.412zM12.84 29.39a4.807 4.807 0 00-4.8 4.802 4.807 4.807 0 004.8 4.8 4.808 4.808 0 004.802-4.8 4.808 4.808 0 00-4.802-4.802zm0 10.603a5.808 5.808 0 01-5.8-5.801 5.809 5.809 0 015.8-5.802 5.809 5.809 0 015.802 5.802 5.809 5.809 0 01-5.802 5.8z"/><path d="M13.764 33.662l7.554.013 4.42-7.485h-7.553l-4.421 7.472zm8.124 1.013l-9.876-.015 5.603-9.47h9.876l-5.603 9.485zM30.966 29.39a4.808 4.808 0 00-4.802 4.802 4.808 4.808 0 004.802 4.8 4.808 4.808 0 004.802-4.8 4.808 4.808 0 00-4.802-4.802zm0 10.603a5.809 5.809 0 01-5.802-5.801 5.809 5.809 0 015.802-5.802 5.809 5.809 0 015.802 5.802 5.809 5.809 0 01-5.802 5.8z"/><path d="M30.5 34.343L25.687 21.58h4.575v1h-3.13l4.303 11.408-.935.354zM15.117 22.581h4.788v-1h-4.788v1z"/></g></svg>
